static/assets/images/networks/aurora-mono.svg

<svg width="280" height="256" viewBox="0 0 280 256" fill="none" xmlns="http://www.w3.org/2000/svg">
<path d="M139.972 255.982H52.9884C26.1539 255.982 4.11287 236.918 0.492463 210.437C-1.15844 198.447 1.38669 187.241 7.44725 176.787C21.1396 153.171 34.8104 129.532 48.4593 105.87C63.7519 79.4156 79.0481 52.9632 94.348 26.5132C103.037 11.5411 116.027 2.37417 133.195 0.436682C155.967 -2.13699 173.798 6.68286 185.546 26.4408C198.641 48.4616 211.251 70.768 224.085 92.9515C240.256 120.905 256.428 148.867 272.599 176.838C277.729 185.701 280.249 195.194 279.981 205.445C279.336 229.992 260.202 251.713 235.96 255.27C232.922 255.716 229.856 255.944 226.786 255.953C197.847 256.004 168.909 256.013 139.972 255.982ZM139.972 223.475C168.849 223.475 197.726 223.475 226.605 223.475C230.352 223.475 233.904 222.824 237.202 220.981C245.916 216.119 250.847 204.071 244.37 192.963C224.943 159.657 205.723 126.225 186.422 92.8358C176.756 76.119 167.09 59.4022 157.426 42.6854C153.339 35.6259 147.144 32.1305 139.035 32.4594C131.504 32.7631 126.052 36.5874 122.301 43.0866C103.159 76.2938 83.9923 109.479 64.8017 142.643C55.1111 159.415 45.4145 176.184 35.7118 192.949C33.3405 197.033 32.0443 201.339 32.772 206.059C34.4048 216.636 42.4277 223.464 53.1767 223.471C82.1062 223.484 111.039 223.485 139.976 223.475H139.972Z" fill="black"/>
</svg>

<svg xmlns="http://www.w3.org/2000/svg" fill="none" viewBox="0 0 280 256"><path fill="#000" d="M139.972 255.982H52.988c-26.834 0-48.875-19.064-52.496-45.545-1.65-11.99.895-23.196 6.955-33.65A36890 36890 0 0 0 48.46 105.87Q71.4 66.189 94.348 26.513c8.689-14.972 21.679-24.139 38.847-26.076 22.772-2.574 40.603 6.246 52.351 26.004 13.095 22.02 25.705 44.327 38.539 66.51q24.257 41.93 48.514 83.887c5.13 8.863 7.65 18.356 7.382 28.607-.645 24.547-19.779 46.268-44.021 49.825a64.5 64.5 0 0 1-9.174.683q-43.408.076-86.814.029m0-32.507h86.633c3.747 0 7.299-.651 10.597-2.494 8.714-4.862 13.645-16.91 7.168-28.018-19.427-33.306-38.647-66.738-57.948-100.127l-28.996-50.15c-4.087-7.06-10.282-10.556-18.391-10.227-7.531.304-12.983 4.128-16.734 10.628a69176 69176 0 0 1-57.5 99.556 80524 80524 0 0 1-29.09 50.306c-2.37 4.084-3.667 8.39-2.939 13.11 1.633 10.577 9.656 17.405 20.405 17.412q43.394.02 86.799.004z"/></svg>
